X:1512
T:"The Cameronian Reel"           1512
C:after Chief. F. O'Neill
B:O'Neill's Music Of Ireland (The 1850) Lyon & Healy, Chicago, 1903 edition
Z:FROM O'NEILL'S TO NOTEWORTHY, FROM NOTEWORTHY TO ABC, MIDI AND .TXT BY VINCE
BRENNAN July 2003 (HTTP://WWW.SOSYOURMOM.COM)
I:abc2nwc
M:C|
L:1/8
K:D
(dB)"^Segno"|{B}A2FA DAFA|GFEF GBdB|TRBAFA DAFA|GBAG FDdB|
{B}A2FA DAFA|GFEF GBdB| TRBAFA DAFA GBAG FD D2"Fine^"||
Addc d2(cd)|edef gfed|(3(cBA) (eA) fAeA|fdef gfed|
fgaf bage|dfec defg|(3(agf) (ge) fdec|dABG FAdB||
{B}A2FA DAFA|GFEF GBdB| TRBAFA DAFA|GBAG FDdB|
{B}A2FA DAFA|GFEF GBdB| TRBAFA DAFA GBAG FD "D.S. al Fine^"D2|]
